X: 195
T: People's Choice (jig)
N: 160182
C: BB
R: jig
Q: 1/8=340
M: 6/8
L: 1/8
K: D
D | "D"FED AFA | "G"BGB Bcd | "Bm"fdB "F#m"AFA | "D"dAF "A"ECE |
"D"FED AFA | "G"BGB Bcd | "D"fdd add | "A"cec "D"d2 :|
e | "D"fed "A"edc | "G"dcB "F#m"AFA | "D"fdd "G"bag | "D"fga "A"ece |
"D"fed "A"edc |"G"dcB "F#m"AFA|"D"fdd add |"A"cec "D"d2 :|
%%%%%%%%%%%%%%%%%%%%%%%%%%%%%%%%%%%%%%%%%%%
